public/images/icons/editor/picture.svg

<svg xmlns="http://www.w3.org/2000/svg" height="13" viewBox="0 0 19 16"><path d="M17.8 0H1.2A1.2 1.2 0 0 0 0 1.2v13.6A1.2 1.2 0 0 0 1.2 16h16.6a1.2 1.2 0 0 0 1.2-1.2V1.2a1.4 1.4 0 0 0-.2-.6.8.8 0 0 0-.4-.4zm0 14.8H1.2v-3.5l4.7-4.6 5 4.9.3.2.5-.2 2.1-1.9 3.9 4h.1v1.1zm0-2.8l-3.5-3.5-.4-.2h-.4l-2.2 2-4.9-4.8-.4-.2c-.2 0-.4 0-.5.2L1.2 9.7V1.2h16.6V12zm-4.2-6.1h.6a1.1 1.1 0 0 0 .6-1.1 1.2 1.2 0 0 0-1.2-1.1 1.3 1.3 0 0 0-1.2 1.2 1.2 1.2 0 0 0 .4.8 1.1 1.1 0 0 0 .8.3z"/></svg>

<svg xmlns="http://www.w3.org/2000/svg" height="13" viewBox="0 0 19 16">
    <path d="M17.8,0H1.2A1.2,1.2,0,0,0,0,1.2V14.8A1.2,1.2,0,0,0,1.2,16H17.8A1.2,1.2,0,0,0,19,14.8V1.2a1.4,1.4,0,0,0-.2-.6.8.8,0,0,0-.4-.4Zm0,14.8H1.2V11.3L5.9,6.7l5,4.9.3.2.5-.2,2.1-1.9,3.9,4h.1v1.1Zm0-2.8L14.3,8.5l-.4-.2h-.4l-2.2,2L6.4,5.5,6,5.3c-.2,0-.4,0-.5.2L1.2,9.7V1.2H17.8V12ZM13.6,5.9h.6a1.1,1.1,0,0,0,.6-1.1,1.2,1.2,0,0,0-1.2-1.1,1.3,1.3,0,0,0-1.2,1.2,1.2,1.2,0,0,0,.4.8,1.1,1.1,0,0,0,.8.3Z"/>
</svg>
